!!!SOCIAL_FUNCTION:	corn dance songs
!!!PDT:	1932
!!!OTL: No_18_Corn_Dance_Song_(d).krn
!!!REG: Southwest
!!!LANG: Non-Tone
!!!LING_GROUP: Yuman-Cochimi
**kern
*staff1
=1-
*clefF4
*k[f#c#g#d#]
*M2/4
8C#/L
8C#/J
8.E\L
16E\Jk
=2
16E\LK
8.E\J
4r
=3
8E\L
8E\J
8.F#\L
16F#\Jk
=4
16F#\LK
8.E\J
4r
=5
4E\
4E\
=6
4E\
4E\
=7
8E\L
8E\J
8.F#\L
16F#\Jk
=8
16F#\LK
8.E\J
4r
=9
8E\L
8E\J
8.F#\L
16F#\Jk
=10
16F#\LK
8.E\J
4r
=11
8E\L
8E\J
8.B\L
16B\Jk
=12
16B\LK
8.A\J
4r
=13
8F#\L
8F#\J
8.A\L
16F#\Jk
=14
16F#\LK
[8.E\J
4E\]
=15
8E\L
8E\J
8.A\L
16A\Jk
=16
16A\LK
[8.G#\J
4G#\]
=17
8F#\L
8F#\J
8.G#\L
16F#\Jk
=18
16F#\LK
[8.E\J
4E\]
=19
8E\L
8E\J
8.F#\L
16F#\Jk
=20
16F#\LK
[8.E\J
4E\]
=21
4E\
4E\
=22
4E\
4E\
=23
8E\L
8E\J
8.F#\L
16F#\Jk
=24
16F#\LK
8.E\J
4r
=25
8E\L
8E\J
8.F#\L
16F#\Jk
=26
16F#\LK
[8.E\J
4E\]
==
*-
